images/3234701.svg

<?xml version="1.0" encoding="UTF-8"?>
<svg xmlns="http://www.w3.org/2000/svg" xmlns:xlink="http://www.w3.org/1999/xlink" width="300pt" height="300pt" viewBox="0 0 300 300" version="1.1">
<defs>
<g>
<symbol overflow="visible" id="glyph0-0">
<path style="stroke:none;" d="M 0.796875 2.828125 L 0.796875 -11.28125 L 8.796875 -11.28125 L 8.796875 2.828125 Z M 1.703125 1.9375 L 7.90625 1.9375 L 7.90625 -10.390625 L 1.703125 -10.390625 Z M 1.703125 1.9375 "/>
</symbol>
<symbol overflow="visible" id="glyph0-1">
<path style="stroke:none;" d="M 1.578125 -11.671875 L 3.703125 -11.671875 L 8.875 -1.90625 L 8.875 -11.671875 L 10.40625 -11.671875 L 10.40625 0 L 8.28125 0 L 3.109375 -9.765625 L 3.109375 0 L 1.578125 0 Z M 1.578125 -11.671875 "/>
</symbol>
<symbol overflow="visible" id="glyph0-2">
<path style="stroke:none;" d="M 1.578125 -11.671875 L 3.15625 -11.671875 L 3.15625 -6.890625 L 8.890625 -6.890625 L 8.890625 -11.671875 L 10.46875 -11.671875 L 10.46875 0 L 8.890625 0 L 8.890625 -5.5625 L 3.15625 -5.5625 L 3.15625 0 L 1.578125 0 Z M 1.578125 -11.671875 "/>
</symbol>
<symbol overflow="visible" id="glyph0-3">
<path style="stroke:none;" d="M 10.3125 -10.765625 L 10.3125 -9.109375 C 9.78125 -9.597656 9.210938 -9.960938 8.609375 -10.203125 C 8.003906 -10.453125 7.363281 -10.578125 6.6875 -10.578125 C 5.351562 -10.578125 4.332031 -10.171875 3.625 -9.359375 C 2.914062 -8.546875 2.5625 -7.367188 2.5625 -5.828125 C 2.5625 -4.285156 2.914062 -3.109375 3.625 -2.296875 C 4.332031 -1.484375 5.351562 -1.078125 6.6875 -1.078125 C 7.363281 -1.078125 8.003906 -1.195312 8.609375 -1.4375 C 9.210938 -1.6875 9.78125 -2.054688 10.3125 -2.546875 L 10.3125 -0.90625 C 9.757812 -0.53125 9.171875 -0.242188 8.546875 -0.046875 C 7.929688 0.140625 7.28125 0.234375 6.59375 0.234375 C 4.832031 0.234375 3.441406 -0.304688 2.421875 -1.390625 C 1.410156 -2.472656 0.90625 -3.953125 0.90625 -5.828125 C 0.90625 -7.703125 1.410156 -9.175781 2.421875 -10.25 C 3.441406 -11.332031 4.832031 -11.875 6.59375 -11.875 C 7.289062 -11.875 7.945312 -11.78125 8.5625 -11.59375 C 9.1875 -11.414062 9.769531 -11.140625 10.3125 -10.765625 Z M 10.3125 -10.765625 "/>
</symbol>
<symbol overflow="visible" id="glyph0-4">
<path style="stroke:none;" d="M 1.515625 -12.15625 L 2.953125 -12.15625 L 2.953125 0 L 1.515625 0 Z M 1.515625 -12.15625 "/>
</symbol>
</g>
</defs>
<g id="surface30113">
<rect x="0" y="0" width="300" height="300" style="fill:rgb(100%,100%,100%);fill-opacity:1;stroke:none;"/>
<path style="fill:none;stroke-width:1.2;stroke-linecap:butt;stroke-linejoin:miter;stroke:rgb(0%,0%,0%);stroke-opacity:1;stroke-miterlimit:10;" d="M 202.335938 228.265625 L 200.152344 190.078125 "/>
<path style="fill:none;stroke-width:1.2;stroke-linecap:butt;stroke-linejoin:miter;stroke:rgb(0%,0%,100%);stroke-opacity:1;stroke-miterlimit:10;" d="M 236.5 245.46875 L 219.417969 236.867188 "/>
<path style="fill:none;stroke-width:1.2;stroke-linecap:butt;stroke-linejoin:miter;stroke:rgb(0%,0%,0%);stroke-opacity:1;stroke-miterlimit:10;" d="M 219.417969 236.867188 L 202.335938 228.265625 "/>
<path style="fill:none;stroke-width:1.2;stroke-linecap:butt;stroke-linejoin:miter;stroke:rgb(0%,0%,0%);stroke-opacity:1;stroke-miterlimit:10;" d="M 200.152344 190.078125 L 216.144531 179.585938 "/>
<path style="fill:none;stroke-width:1.2;stroke-linecap:butt;stroke-linejoin:miter;stroke:rgb(0%,0%,100%);stroke-opacity:1;stroke-miterlimit:10;" d="M 216.144531 179.585938 L 232.132812 169.09375 "/>
<path style="fill:none;stroke-width:1.2;stroke-linecap:butt;stroke-linejoin:miter;stroke:rgb(0%,0%,100%);stroke-opacity:1;stroke-miterlimit:10;" d="M 232.132812 169.09375 L 249.214844 177.695312 "/>
<path style="fill:none;stroke-width:1.2;stroke-linecap:butt;stroke-linejoin:miter;stroke:rgb(0%,0%,0%);stroke-opacity:1;stroke-miterlimit:10;" d="M 249.214844 177.695312 L 266.296875 186.296875 "/>
<path style="fill:none;stroke-width:1.2;stroke-linecap:butt;stroke-linejoin:miter;stroke:rgb(0%,0%,100%);stroke-opacity:1;stroke-miterlimit:10;" d="M 232.132812 169.09375 L 231.042969 150 "/>
<path style="fill:none;stroke-width:1.2;stroke-linecap:butt;stroke-linejoin:miter;stroke:rgb(0%,0%,0%);stroke-opacity:1;stroke-miterlimit:10;" d="M 231.042969 150 L 229.949219 130.90625 "/>
<path style=" stroke:none;fill-rule:nonzero;fill:rgb(100%,100%,100%);fill-opacity:1;" d="M 226.132812 159.59375 L 238.132812 159.59375 L 238.132812 178.59375 L 226.132812 178.59375 Z M 226.132812 159.59375 "/>
<g style="fill:rgb(0%,0%,100%);fill-opacity:1;">
  <use xlink:href="#glyph0-1" x="226.132812" y="174.445312"/>
</g>
<path style="fill:none;stroke-width:1.2;stroke-linecap:butt;stroke-linejoin:miter;stroke:rgb(0%,0%,0%);stroke-opacity:1;stroke-miterlimit:10;" d="M 266.296875 186.296875 L 268.480469 224.484375 "/>
<path style="fill:none;stroke-width:1.2;stroke-linecap:butt;stroke-linejoin:miter;stroke:rgb(0%,0%,0%);stroke-opacity:1;stroke-miterlimit:10;" d="M 268.480469 224.484375 L 252.488281 234.976562 "/>
<path style="fill:none;stroke-width:1.2;stroke-linecap:butt;stroke-linejoin:miter;stroke:rgb(0%,0%,100%);stroke-opacity:1;stroke-miterlimit:10;" d="M 252.488281 234.976562 L 236.5 245.46875 "/>
<path style=" stroke:none;fill-rule:nonzero;fill:rgb(100%,100%,100%);fill-opacity:1;" d="M 224.5 235.96875 L 248.5 235.96875 L 248.5 254.96875 L 224.5 254.96875 Z M 224.5 235.96875 "/>
<g style="fill:rgb(0%,0%,100%);fill-opacity:1;">
  <use xlink:href="#glyph0-1" x="224.5" y="250.820312"/>
  <use xlink:href="#glyph0-2" x="236.46875" y="250.820312"/>
</g>
<path style="fill:none;stroke-width:1.2;stroke-linecap:butt;stroke-linejoin:miter;stroke:rgb(0%,0%,0%);stroke-opacity:1;stroke-miterlimit:10;" d="M 229.949219 130.90625 L 245.941406 120.414062 "/>
<path style="fill:none;stroke-width:1.2;stroke-linecap:butt;stroke-linejoin:miter;stroke:rgb(0%,0%,100%);stroke-opacity:1;stroke-miterlimit:10;" d="M 245.941406 120.414062 L 261.929688 109.921875 "/>
<path style="fill:none;stroke-width:1.2;stroke-linecap:butt;stroke-linejoin:miter;stroke:rgb(0%,0%,0%);stroke-opacity:1;stroke-miterlimit:10;" d="M 228.210938 121.28125 L 241.003906 112.890625 "/>
<path style="fill:none;stroke-width:1.2;stroke-linecap:butt;stroke-linejoin:miter;stroke:rgb(0%,0%,100%);stroke-opacity:1;stroke-miterlimit:10;" d="M 241.003906 112.890625 L 253.792969 104.496094 "/>
<path style="fill:none;stroke-width:1.2;stroke-linecap:butt;stroke-linejoin:miter;stroke:rgb(0%,0%,0%);stroke-opacity:1;stroke-miterlimit:10;" d="M 195.785156 113.703125 L 229.949219 130.90625 "/>
<path style="fill:none;stroke-width:1.2;stroke-linecap:butt;stroke-linejoin:miter;stroke:rgb(0%,0%,100%);stroke-opacity:1;stroke-miterlimit:10;" d="M 261.929688 109.921875 L 260.835938 90.828125 "/>
<path style="fill:none;stroke-width:1.2;stroke-linecap:butt;stroke-linejoin:miter;stroke:rgb(0%,0%,0%);stroke-opacity:1;stroke-miterlimit:10;" d="M 260.835938 90.828125 L 259.746094 71.734375 "/>
<path style=" stroke:none;fill-rule:nonzero;fill:rgb(100%,100%,100%);fill-opacity:1;" d="M 255.929688 100.421875 L 267.929688 100.421875 L 267.929688 119.421875 L 255.929688 119.421875 Z M 255.929688 100.421875 "/>
<g style="fill:rgb(0%,0%,100%);fill-opacity:1;">
  <use xlink:href="#glyph0-1" x="255.929688" y="115.273438"/>
</g>
<path style="fill:none;stroke-width:1.2;stroke-linecap:butt;stroke-linejoin:miter;stroke:rgb(0%,0%,0%);stroke-opacity:1;stroke-miterlimit:10;" d="M 259.746094 71.734375 L 242.664062 63.132812 "/>
<path style="fill:none;stroke-width:1.2;stroke-linecap:butt;stroke-linejoin:miter;stroke:rgb(0%,0%,100%);stroke-opacity:1;stroke-miterlimit:10;" d="M 242.664062 63.132812 L 225.582031 54.53125 "/>
<path style="fill:none;stroke-width:1.2;stroke-linecap:butt;stroke-linejoin:miter;stroke:rgb(0%,0%,0%);stroke-opacity:1;stroke-miterlimit:10;" d="M 252.28125 78.050781 L 238.617188 71.171875 "/>
<path style="fill:none;stroke-width:1.2;stroke-linecap:butt;stroke-linejoin:miter;stroke:rgb(0%,0%,100%);stroke-opacity:1;stroke-miterlimit:10;" d="M 238.617188 71.171875 L 224.953125 64.289062 "/>
<path style="fill:none;stroke-width:1.2;stroke-linecap:butt;stroke-linejoin:miter;stroke:rgb(0%,0%,100%);stroke-opacity:1;stroke-miterlimit:10;" d="M 225.582031 54.53125 L 209.59375 65.023438 "/>
<path style="fill:none;stroke-width:1.2;stroke-linecap:butt;stroke-linejoin:miter;stroke:rgb(0%,0%,0%);stroke-opacity:1;stroke-miterlimit:10;" d="M 209.59375 65.023438 L 193.601562 75.515625 "/>
<path style=" stroke:none;fill-rule:nonzero;fill:rgb(100%,100%,100%);fill-opacity:1;" d="M 219.582031 45.03125 L 231.582031 45.03125 L 231.582031 64.03125 L 219.582031 64.03125 Z M 219.582031 45.03125 "/>
<g style="fill:rgb(0%,0%,100%);fill-opacity:1;">
  <use xlink:href="#glyph0-1" x="219.582031" y="59.882812"/>
</g>
<path style="fill:none;stroke-width:1.2;stroke-linecap:butt;stroke-linejoin:miter;stroke:rgb(0%,0%,0%);stroke-opacity:1;stroke-miterlimit:10;" d="M 193.601562 75.515625 L 195.785156 113.703125 "/>
<path style="fill:none;stroke-width:1.2;stroke-linecap:butt;stroke-linejoin:miter;stroke:rgb(0%,0%,0%);stroke-opacity:1;stroke-miterlimit:10;" d="M 184.835938 79.847656 L 186.582031 110.398438 "/>
<path style="fill:none;stroke-width:1.2;stroke-linecap:butt;stroke-linejoin:miter;stroke:rgb(0%,0%,0%);stroke-opacity:1;stroke-miterlimit:10;" d="M 159.441406 58.3125 L 193.601562 75.515625 "/>
<path style="fill:none;stroke-width:1.2;stroke-linecap:butt;stroke-linejoin:miter;stroke:rgb(0%,0%,0%);stroke-opacity:1;stroke-miterlimit:10;" d="M 195.785156 113.703125 L 163.808594 134.6875 "/>
<path style="fill:none;stroke-width:1.2;stroke-linecap:butt;stroke-linejoin:miter;stroke:rgb(0%,0%,0%);stroke-opacity:1;stroke-miterlimit:10;" d="M 163.808594 134.6875 L 129.644531 117.484375 "/>
<path style="fill:none;stroke-width:1.2;stroke-linecap:butt;stroke-linejoin:miter;stroke:rgb(0%,0%,0%);stroke-opacity:1;stroke-miterlimit:10;" d="M 164.4375 124.929688 L 137.109375 111.167969 "/>
<path style="fill:none;stroke-width:1.2;stroke-linecap:butt;stroke-linejoin:miter;stroke:rgb(0%,0%,0%);stroke-opacity:1;stroke-miterlimit:10;" d="M 129.644531 117.484375 L 127.460938 79.296875 "/>
<path style="fill:none;stroke-width:1.2;stroke-linecap:butt;stroke-linejoin:miter;stroke:rgb(0%,0%,0%);stroke-opacity:1;stroke-miterlimit:10;" d="M 129.644531 117.484375 L 97.664062 138.46875 "/>
<path style="fill:none;stroke-width:1.2;stroke-linecap:butt;stroke-linejoin:miter;stroke:rgb(0%,0%,0%);stroke-opacity:1;stroke-miterlimit:10;" d="M 127.460938 79.296875 L 159.441406 58.3125 "/>
<path style="fill:none;stroke-width:1.2;stroke-linecap:butt;stroke-linejoin:miter;stroke:rgb(0%,0%,0%);stroke-opacity:1;stroke-miterlimit:10;" d="M 135.597656 84.722656 L 161.179688 67.933594 "/>
<path style="fill:none;stroke-width:1.2;stroke-linecap:butt;stroke-linejoin:miter;stroke:rgb(0%,0%,0%);stroke-opacity:1;stroke-miterlimit:10;" d="M 97.664062 138.46875 L 63.5 121.265625 "/>
<path style="fill:none;stroke-width:1.2;stroke-linecap:butt;stroke-linejoin:miter;stroke:rgb(0%,0%,0%);stroke-opacity:1;stroke-miterlimit:10;" d="M 90.199219 144.789062 L 62.871094 131.023438 "/>
<path style="fill:none;stroke-width:1.2;stroke-linecap:butt;stroke-linejoin:miter;stroke:rgb(0%,0%,0%);stroke-opacity:1;stroke-miterlimit:10;" d="M 99.847656 176.65625 L 97.664062 138.46875 "/>
<path style="fill:none;stroke-width:1.2;stroke-linecap:butt;stroke-linejoin:miter;stroke:rgb(0%,0%,0%);stroke-opacity:1;stroke-miterlimit:10;" d="M 63.5 121.265625 L 31.519531 142.25 "/>
<path style="fill:none;stroke-width:1.2;stroke-linecap:butt;stroke-linejoin:miter;stroke:rgb(0%,0%,0%);stroke-opacity:1;stroke-miterlimit:10;" d="M 31.519531 142.25 L 33.703125 180.4375 "/>
<path style="fill:none;stroke-width:1.2;stroke-linecap:butt;stroke-linejoin:miter;stroke:rgb(0%,0%,0%);stroke-opacity:1;stroke-miterlimit:10;" d="M 40.722656 145.554688 L 42.472656 176.105469 "/>
<path style="fill:none;stroke-width:1.2;stroke-linecap:butt;stroke-linejoin:miter;stroke:rgb(0%,0%,0%);stroke-opacity:1;stroke-miterlimit:10;" d="M 33.703125 180.4375 L 67.867188 197.640625 "/>
<path style="fill:none;stroke-width:1.2;stroke-linecap:butt;stroke-linejoin:miter;stroke:rgb(0%,0%,0%);stroke-opacity:1;stroke-miterlimit:10;" d="M 67.867188 197.640625 L 99.847656 176.65625 "/>
<path style="fill:none;stroke-width:1.2;stroke-linecap:butt;stroke-linejoin:miter;stroke:rgb(0%,0%,0%);stroke-opacity:1;stroke-miterlimit:10;" d="M 66.128906 188.019531 L 91.710938 171.230469 "/>
<path style="fill:none;stroke-width:1.2;stroke-linecap:butt;stroke-linejoin:miter;stroke:rgb(0%,0%,0%);stroke-opacity:1;stroke-miterlimit:10;" d="M 99.847656 176.65625 L 116.929688 185.257812 "/>
<path style="fill:none;stroke-width:1.2;stroke-linecap:butt;stroke-linejoin:miter;stroke:rgb(0%,80%,0%);stroke-opacity:1;stroke-miterlimit:10;" d="M 116.929688 185.257812 L 134.011719 193.859375 "/>
<path style=" stroke:none;fill-rule:nonzero;fill:rgb(100%,100%,100%);fill-opacity:1;" d="M 126.011719 184.359375 L 142.011719 184.359375 L 142.011719 203.359375 L 126.011719 203.359375 Z M 126.011719 184.359375 "/>
<g style="fill:rgb(0%,80%,0%);fill-opacity:1;">
  <use xlink:href="#glyph0-3" x="126.011719" y="199.210938"/>
  <use xlink:href="#glyph0-4" x="137.183594" y="199.210938"/>
</g>
</g>
</svg>

<svg xmlns="http://www.w3.org/2000/svg" xmlns:xlink="http://www.w3.org/1999/xlink" width="300pt" height="300pt" viewBox="0 0 300 300"><defs><symbol overflow="visible"><path d="M.797 2.828v-14.11h8V2.83zm.906-.89h6.203v-12.33H1.703zm0 0"/></symbol><symbol overflow="visible" id="a"><path d="M1.578-11.672h2.125l5.172 9.766v-9.766h1.53V0H8.282L3.11-9.766V0H1.577zm0 0"/></symbol><symbol overflow="visible" id="b"><path d="M1.578-11.672h1.578v4.78H8.89v-4.78h1.58V0H8.89v-5.563H3.157V0H1.578zm0 0"/></symbol><symbol overflow="visible" id="c"><path d="M10.313-10.766v1.657c-.532-.488-1.102-.85-1.704-1.093-.606-.25-1.247-.375-1.922-.375-1.336 0-2.356.406-3.063 1.22-.71.81-1.063 1.99-1.063 3.53 0 1.543.352 2.72 1.063 3.53.707.814 1.727 1.22 3.063 1.22.675 0 1.316-.117 1.92-.36.603-.25 1.173-.617 1.704-1.11v1.642c-.554.375-1.14.664-1.765.86-.617.187-1.266.28-1.953.28-1.762 0-3.153-.54-4.172-1.625C1.41-2.474.906-3.954.906-5.83c0-1.875.504-3.348 1.516-4.422 1.02-1.082 2.41-1.625 4.172-1.625.695 0 1.35.094 1.968.28.626.18 1.208.454 1.75.83zm0 0"/></symbol><symbol overflow="visible" id="d"><path d="M1.516-12.156h1.437V0H1.516zm0 0"/></symbol></defs><g><path fill="#fff" d="M0 0h300v300H0z"/><path d="M202.336 228.266l-2.184-38.188" stroke-width="1.2" stroke="#000" stroke-miterlimit="10" fill="none"/><path d="M236.5 245.47l-17.082-8.603" stroke-width="1.2" stroke="#00f" stroke-miterlimit="10" fill="none"/><path d="M219.418 236.867l-17.082-8.6M200.152 190.078l15.993-10.492" stroke-width="1.2" stroke="#000" stroke-miterlimit="10" fill="none"/><path d="M216.145 179.586l15.988-10.492M232.133 169.094l17.082 8.6" stroke-width="1.2" stroke="#00f" stroke-miterlimit="10" fill="none"/><path d="M249.215 177.695l17.082 8.602" stroke-width="1.2" stroke="#000" stroke-miterlimit="10" fill="none"/><path d="M232.133 169.094L231.043 150" stroke-width="1.2" stroke="#00f" stroke-miterlimit="10" fill="none"/><path d="M231.043 150l-1.094-19.094" stroke-width="1.2" stroke="#000" stroke-miterlimit="10" fill="none"/><path d="M226.133 159.594h12v19h-12zm0 0" fill="#fff"/><use xlink:href="#a" x="226.133" y="174.445" fill="#00f"/><path d="M266.297 186.297l2.183 38.187M268.48 224.484l-15.992 10.493" stroke-width="1.2" stroke="#000" stroke-miterlimit="10" fill="none"/><path d="M252.488 234.977L236.5 245.47" stroke-width="1.2" stroke="#00f" stroke-miterlimit="10" fill="none"/><path d="M224.5 235.97h24v19h-24zm0 0" fill="#fff"/><g fill="#00f"><use xlink:href="#a" x="224.5" y="250.82"/><use xlink:href="#b" x="236.469" y="250.82"/></g><path d="M229.95 130.906l15.99-10.492" stroke-width="1.2" stroke="#000" stroke-miterlimit="10" fill="none"/><path d="M245.94 120.414l15.99-10.492" stroke-width="1.2" stroke="#00f" stroke-miterlimit="10" fill="none"/><path d="M228.21 121.28l12.794-8.39" stroke-width="1.2" stroke="#000" stroke-miterlimit="10" fill="none"/><path d="M241.004 112.89l12.79-8.394" stroke-width="1.2" stroke="#00f" stroke-miterlimit="10" fill="none"/><path d="M195.785 113.703l34.164 17.203" stroke-width="1.2" stroke="#000" stroke-miterlimit="10" fill="none"/><path d="M261.93 109.922l-1.094-19.094" stroke-width="1.2" stroke="#00f" stroke-miterlimit="10" fill="none"/><path d="M260.836 90.828l-1.09-19.094" stroke-width="1.2" stroke="#000" stroke-miterlimit="10" fill="none"/><path d="M255.93 100.422h12v19h-12zm0 0" fill="#fff"/><use xlink:href="#a" x="255.93" y="115.273" fill="#00f"/><path d="M259.746 71.734l-17.082-8.6" stroke-width="1.2" stroke="#000" stroke-miterlimit="10" fill="none"/><path d="M242.664 63.133l-17.082-8.602" stroke-width="1.2" stroke="#00f" stroke-miterlimit="10" fill="none"/><path d="M252.28 78.05l-13.663-6.878" stroke-width="1.2" stroke="#000" stroke-miterlimit="10" fill="none"/><path d="M238.617 71.172l-13.664-6.883M225.582 54.53l-15.988 10.493" stroke-width="1.2" stroke="#00f" stroke-miterlimit="10" fill="none"/><path d="M209.594 65.023l-15.992 10.493" stroke-width="1.2" stroke="#000" stroke-miterlimit="10" fill="none"/><path d="M219.582 45.03h12v19h-12zm0 0" fill="#fff"/><use xlink:href="#a" x="219.582" y="59.883" fill="#00f"/><path d="M193.602 75.516l2.183 38.187M184.836 79.848l1.746 30.55M159.44 58.313l34.162 17.203M195.785 113.703l-31.976 20.984M163.81 134.688l-34.165-17.204M164.438 124.93l-27.33-13.762M129.645 117.484l-2.184-38.187M129.645 117.484l-31.98 20.985M127.46 79.297l31.98-20.984M135.598 84.723l25.582-16.79M97.664 138.47L63.5 121.265M90.2 144.79l-27.33-13.767M99.848 176.656l-2.184-38.187M63.5 121.266L31.52 142.25M31.52 142.25l2.183 38.188M40.723 145.555l1.75 30.55M33.703 180.438l34.164 17.203M67.867 197.64l31.98-20.984M66.13 188.02l25.58-16.79M99.848 176.656l17.082 8.602" stroke-width="1.2" stroke="#000" stroke-miterlimit="10" fill="none"/><path d="M116.93 185.258l17.082 8.6" stroke-width="1.2" stroke="#0c0" stroke-miterlimit="10" fill="none"/><path d="M126.012 184.36h16v19h-16zm0 0" fill="#fff"/><g fill="#0c0"><use xlink:href="#c" x="126.012" y="199.211"/><use xlink:href="#d" x="137.184" y="199.211"/></g></g></svg>
